assets/icons/24px/stroke/square-and-pencil-24px.svg

<svg width="24" height="24" viewBox="0 0 24 24" fill="none" xmlns="http://www.w3.org/2000/svg">
<path fill-rule="evenodd" clip-rule="evenodd" d="M21.7071 2.29289C22.0976 2.68342 22.0976 3.31658 21.7071 3.70711L20 5.41421L18.5858 4L20.2929 2.29289C20.6834 1.90237 21.3166 1.90237 21.7071 2.29289ZM19.4142 6L11.7071 13.7071C11.3166 14.0976 10.6834 14.0976 10.2929 13.7071C9.90237 13.3166 9.90237 12.6834 10.2929 12.2929L18 4.58578L19.4142 6Z" fill="white"/>
<path fill-rule="evenodd" clip-rule="evenodd" d="M6.93418 6C6.95605 6 6.97799 6 7.00001 6H10C10.5523 6 11 6.44772 11 7C11 7.55229 10.5523 8 10 8H7.00001C6.02893 8 5.40122 8.00213 4.93871 8.06431C4.50497 8.12263 4.36903 8.21677 4.2929 8.2929C4.21678 8.36902 4.12263 8.50497 4.06432 8.93871C4.00213 9.40121 4.00001 10.0289 4.00001 11L4.00001 17C4 17.9711 4.00213 18.5988 4.06431 19.0613C4.12262 19.495 4.21677 19.631 4.2929 19.7071C4.36902 19.7832 4.50497 19.8774 4.93871 19.9357C5.40121 19.9979 6.02893 20 7.00001 20H13C13.9711 20 14.5988 19.9979 15.0613 19.9357C15.495 19.8774 15.631 19.7832 15.7071 19.7071C15.7832 19.631 15.8774 19.495 15.9357 19.0613C15.9979 18.5988 16 17.9711 16 17V14C16 13.4477 16.4477 13 17 13C17.5523 13 18 13.4477 18 14L18 17.0658C18.0001 17.9523 18.0001 18.7161 17.9179 19.3278C17.8297 19.9833 17.631 20.6117 17.1213 21.1213C16.6117 21.631 15.9833 21.8297 15.3278 21.9179C14.7161 22.0001 13.9523 22.0001 13.0658 22H6.93417C6.04769 22.0001 5.28387 22.0001 4.67221 21.9179C4.0167 21.8297 3.38835 21.631 2.87868 21.1213C2.36902 20.6117 2.17028 19.9833 2.08214 19.3278C1.99991 18.7161 1.99995 17.9523 2 17.0658L2.00001 11C2.00001 10.978 2.00001 10.956 2.00001 10.9342C1.99996 10.0477 1.99991 9.28387 2.08215 8.67221C2.17028 8.0167 2.36903 7.38835 2.87869 6.87868C3.38835 6.36902 4.0167 6.17028 4.67222 6.08215C5.28388 5.99991 6.04769 5.99995 6.93418 6Z" fill="white"/>
</svg>

<svg width="24" height="24" fill="none" xmlns="http://www.w3.org/2000/svg"><path fill-rule="evenodd" clip-rule="evenodd" d="M21.707 2.293a1 1 0 0 1 0 1.414L20 5.414 18.586 4l1.707-1.707a1 1 0 0 1 1.414 0zM19.414 6l-7.707 7.707a1 1 0 0 1-1.414-1.414L18 4.586 19.414 6z" fill="#fff"/><path fill-rule="evenodd" clip-rule="evenodd" d="M6.934 6H10a1 1 0 1 1 0 2H7c-.971 0-1.599.002-2.061.064-.434.059-.57.153-.646.229-.076.076-.17.212-.229.646C4.002 9.4 4 10.029 4 11v6c0 .971.002 1.599.064 2.061.059.434.153.57.229.646.076.076.212.17.646.229C5.4 19.998 6.029 20 7 20h6c.971 0 1.599-.002 2.061-.064.434-.059.57-.153.646-.229.076-.076.17-.212.229-.646.062-.462.064-1.09.064-2.061v-3a1 1 0 1 1 2 0v3.066c0 .886 0 1.65-.082 2.262-.088.655-.287 1.284-.797 1.793-.51.51-1.138.709-1.793.797-.612.082-1.376.082-2.262.082H6.934c-.886 0-1.65 0-2.262-.082-.655-.088-1.284-.287-1.793-.797-.51-.51-.709-1.138-.797-1.793C2 18.716 2 17.952 2 17.066V11v-.066c0-.886 0-1.65.082-2.262.088-.655.287-1.284.797-1.793.51-.51 1.138-.709 1.793-.797C5.284 6 6.048 6 6.934 6z" fill="#fff"/></svg>
